X: 1
T: Midsummer's Night
M: 4/4
L: 1/8
R: reel
K: Ador
|:eBdB ABAG|EG~G2 EGDg|eBdB ~A2(3Bcd|e2ag egdg|
eBdB ~A3G|EG~G2 EGDA|GEDE GABd|1eBdB AGBd:|2eBdB cAFA||
|:G3A BG(3Bcd|~g3a baga|bage dG(3Bcd|egdg edBA|
~G3A BG(3Bcd|Bgga baga|bage dG(3Bcd|1e2ge edBA:|2e2ge edBd||
